X: 1333
T: Charlie Kyle's March
B: australian traditional tunes wiki
M:4/4
L:1/8
R: March
Q: 1/4=100
K:G
V:1 
"D7"DEF||"G"G2DGB2GB|"Em"e2d2"G"B2GB|"D7"d2c2A2d2|"G"B/B/B/B/ BA "D7"BD EF|
"G"G2DGB2GB|"Em"e2d2"G"B2GB|"D7"d2c2A2d2|"G"G/G/G/G/ GGG4|
"C"g2fe "G"dB GB|"Em"d/e/d/c/"D7"d4zB|"C"c/d/c/B/"Am"c4zA|"D7"F2e2d2Bd|
"C"g2"D7"fe fe fe|"G"dBd4zB|"A7"AB/A/ a2 AB/A/a2|"D7"A>A dd/d/ dD EF|
"G"G2DGB2GB|"Em"e2d2"G"B2GB|"D7"d2c2A2d2|"G"B/B/B/B/ BA "D7"BD EF|
"G"G2DGB2GB|"Em"e2d2"G"B2GB|"D7"d2c2A2d2|"G"G/G/G/G/ GGG4|
% abcbook-tune_id 6342d53ab9333c16b0a9da85


% abcbook-boost 0
% abcbook-tablature 
% abcbook-transpose 
% abcbook-lastupdated 1665324359777
% abcbook-soundfonts 
% abcbook-repeats 1
% NFF Book 2014

